X:1
T:Adrian, 11.10.11.10
T:Thomas Franklin Rinehart, 1860
T:Adrian, 11.10.11.10
T:Public Domain
C:Thomas Franklin Rinehart, 1860
Z:Public Domain
%%score ( 1 2 ) ( 3 4 )
L:1/8
M:4/4
K:G
V:1 treble 
V:2 treble 
V:3 bass 
V:4 bass 
V:1
 [DG]4 [EG]2 [DG]2 | [EG]6 [EA]2 | [DG]2 [CF]2 [CE]2 [CF]2 | [CA]4 [B,G]4 | [DB]4 [DB]2 [^DB]2 | %5
 [EB]6 [DB]2 | [^CB]2 [CA]2 [CG]2 [CE]2 | [DA]8 | (D2 E2) [Fc]2 [Fc]2 | [GB]6 [GB]2 | %10
 [Ge]3 [Ge] [GB]2 [Ge]2 | [Ge]2 [F^d]6 | [Ee]4 [Ec]2 [_EA]2 | [Dd]6 [DG]2 | %14
 [CG]2 [CF]2 [CE]2 [CF]2 | [B,G]8 |] %16
V:2
 x8 | x8 | x8 | x8 | x8 | x8 | x8 | x8 | c4 x4 | x8 | x8 | x8 | x8 | x8 | x8 | x8 |] %16
V:3
 [G,B,]4 [E,B,]2 [B,,G,]2 | [C,G,]6 [A,,C]2 | [D,B,]2 [D,A,]2 [D,G,]2 [D,A,]2 | [D,F,]4 [G,,G,]4 | %4
 G,4 [G,B,]2 [F,A,]2 | [E,G,]6 [E,G,]2 | [A,,G,]2 [A,,F,]2 [A,,E,]2 [A,,G,]2 | [D,F,]8 | %8
 (F,2 G,2) [=D,A,]2 [^D,A,]2 | [E,G,]6 [E,G,]2 | [E,B,]3 [E,B,] [E,B,]2 [E,B,]2 | %11
 [B,,B,]2 (B,4 A,2) | [C,G,]4 [C,A,]2 [C,F,]2 | [B,,G,]6 [D,B,]2 | %14
 [D,A,]2 [D,A,]2 [D,G,]2 [D,A,]2 | [G,,G,]8 |] %16
V:4
 x8 | x8 | x8 | x8 | G,4 x4 | x8 | x8 | x8 | ^D,4 x4 | x8 | x8 | x2 B,,6 | x8 | x8 | x8 | x8 |] %16

